tools/download-figma-icons/icons/outlined-large/energy-gas-circle.svg

<svg width="64" height="64" viewBox="0 0 64 64" fill="none" xmlns="http://www.w3.org/2000/svg">
<path d="M11.5267 44.0068C11.1293 44.0068 10.7481 44.1648 10.4671 44.446C10.1861 44.7272 10.0282 45.1086 10.0282 45.5063V50.8045C6.35256 46.5446 3.99947 41.3037 3.25756 35.725C2.51566 30.1462 3.41719 24.472 5.85158 19.3985C8.28597 14.325 12.1473 10.0728 16.962 7.16353C21.7767 4.25427 27.3353 2.81446 32.956 3.02071C36.0331 3.19283 39.0656 3.83678 41.9473 4.93006C42.3114 5.04208 42.7045 5.01112 43.0466 4.8435C43.3888 4.67588 43.6543 4.38416 43.7892 4.02767C43.924 3.67118 43.9182 3.27667 43.7727 2.92436C43.6273 2.57204 43.3532 2.28837 43.0063 2.13101C39.8218 0.929433 36.4736 0.218246 33.0759 0.0217312C26.8442 -0.208447 20.6818 1.39408 15.3507 4.63114C10.0195 7.8682 5.75351 12.5978 3.08012 18.2351C0.406734 23.8724 -0.556754 30.1702 0.308801 36.3496C1.17436 42.529 3.83099 48.3191 7.95019 53.0037H2.52543C2.12799 53.0037 1.74683 53.1617 1.4658 53.4429C1.18477 53.7241 1.02688 54.1055 1.02688 54.5032C1.02688 54.9009 1.18477 55.2823 1.4658 55.5635C1.74683 55.8447 2.12799 56.0027 2.52543 56.0027H11.5167C11.7152 56.0054 11.9122 55.9685 12.0963 55.8944C12.2805 55.8202 12.448 55.7102 12.5893 55.5707C12.7306 55.4312 12.8428 55.265 12.9193 55.0817C12.9959 54.8985 13.0353 54.7018 13.0353 54.5032V45.5063C13.0353 45.3085 12.9962 45.1127 12.9203 44.9301C12.8443 44.7476 12.733 44.5818 12.5928 44.4424C12.4526 44.3031 12.2862 44.1928 12.1033 44.1181C11.9203 44.0433 11.7244 44.0055 11.5267 44.0068Z" fill="black"/>
<path d="M56.0837 11.0177H61.5085C61.9059 11.0177 62.2871 10.8597 62.5681 10.5785C62.8492 10.2973 63.007 9.91587 63.007 9.51818C63.007 9.12049 62.8492 8.73909 62.5681 8.45788C62.2871 8.17667 61.9059 8.01869 61.5085 8.01869H52.5172C52.317 8.016 52.1184 8.05347 51.9329 8.12888C51.7475 8.20429 51.579 8.31611 51.4374 8.45774C51.2959 8.59938 51.1841 8.76796 51.1088 8.95353C51.0334 9.13909 50.996 9.33789 50.9987 9.53817V18.5351C50.9987 18.9328 51.1565 19.3142 51.4376 19.5954C51.7186 19.8766 52.0998 20.0346 52.4972 20.0346C52.8947 20.0346 53.2758 19.8766 53.5569 19.5954C53.8379 19.3142 53.9958 18.9328 53.9958 18.5351V13.2369C58.7253 18.743 61.2121 25.8276 60.9622 33.0837C60.7124 40.3398 57.7441 47.2364 52.6471 52.4036C49.9892 55.1198 46.8173 57.2789 43.3164 58.755C39.8155 60.2311 36.0558 60.9945 32.2568 61.0007H32.017C28.6029 60.944 25.2237 60.3015 22.0267 59.1013C21.8368 59.0032 21.6282 58.9469 21.4148 58.9361C21.2014 58.9252 20.9882 58.9602 20.7894 59.0386C20.5906 59.117 20.4109 59.2371 20.2623 59.3907C20.1137 59.5443 19.9996 59.7279 19.9278 59.9293C19.8559 60.1306 19.8279 60.345 19.8456 60.5581C19.8634 60.7712 19.9264 60.978 20.0306 61.1646C20.1348 61.3513 20.2776 61.5135 20.4496 61.6404C20.6216 61.7673 20.8186 61.856 21.0277 61.9004C24.5418 63.2311 28.2601 63.9414 32.017 63.9997H32.2668C36.462 63.9959 40.6144 63.155 44.4809 61.526C48.3474 59.8971 51.8505 57.5129 54.785 54.5129C60.4573 48.7706 63.7448 41.0913 63.9858 33.0209C64.2267 24.9506 61.4033 17.0886 56.0837 11.0177Z" fill="black"/>
<path d="M21.3472 34.6001C22.8819 34.6016 24.3929 34.2215 25.7444 33.4938C27.0959 32.7662 28.2454 31.7139 29.0898 30.4316L33.0859 24.4336C33.1943 24.2706 33.2695 24.0878 33.3072 23.8957C33.3449 23.7036 33.3444 23.5059 33.3057 23.314C33.2715 23.1118 33.1963 22.9187 33.0846 22.7468C32.9729 22.5748 32.8271 22.4277 32.6563 22.3143L31.1378 21.3147L33.7952 17.316C33.9041 17.1519 33.9796 16.968 34.0175 16.7747C34.0553 16.5814 34.0547 16.3825 34.0158 16.1894C33.9768 15.9963 33.9002 15.8128 33.7904 15.6494C33.6805 15.4859 33.5396 15.3457 33.3756 15.2367C33.2116 15.1278 33.0278 15.0522 32.8346 15.0143C32.6414 14.9764 32.4427 14.977 32.2497 15.016C32.0568 15.055 31.8734 15.1316 31.71 15.2415C31.5466 15.3515 31.4065 15.4925 31.2976 15.6566L28.6302 19.6552L23.4752 16.2564L25.8129 12.5476C25.9398 12.3796 26.0299 12.1867 26.0774 11.9815C26.1248 11.7763 26.1285 11.5634 26.0883 11.3567C26.048 11.15 25.9647 10.9541 25.8437 10.7817C25.7228 10.6094 25.5669 10.4644 25.3862 10.3564C25.2055 10.2484 25.0041 10.1796 24.7951 10.1546C24.5861 10.1296 24.3742 10.149 24.1732 10.2114C23.9722 10.2739 23.7866 10.378 23.6284 10.517C23.4703 10.656 23.3432 10.8267 23.2554 11.0182L20.9376 14.6769L19.4191 13.6772C19.2567 13.5679 19.0737 13.4929 18.8813 13.4568C18.6889 13.4207 18.4912 13.4243 18.3002 13.4673C18.1075 13.5055 17.9242 13.5818 17.7613 13.6916C17.5983 13.8015 17.4589 13.9427 17.3511 14.1071L13.355 20.1051C12.0182 22.1419 11.5439 24.6263 12.0363 27.0127C12.4328 28.9499 13.45 30.7047 14.9335 32.011L12.5158 35.6098C12.3454 35.8366 12.2428 36.1072 12.22 36.3901C12.1972 36.673 12.2551 36.9565 12.3869 37.2077C12.5187 37.459 12.7191 37.6677 12.9647 37.8095C13.2104 37.9513 13.4912 38.0205 13.7746 38.009C14.0236 38.0116 14.2694 37.9517 14.4893 37.8347C14.7092 37.7177 14.8963 37.5473 15.0334 37.3392L17.451 33.7304C18.6715 34.2991 20.0009 34.5958 21.3472 34.6001ZM15.8825 21.7445L19.0295 16.9561L29.7291 23.9538L26.5822 28.7321C26.1318 29.4184 25.5507 30.009 24.872 30.4704C24.1933 30.9318 23.4305 31.2548 22.627 31.421C21.8235 31.5872 20.9952 31.5933 20.1893 31.4389C19.3835 31.2846 18.6159 30.9729 17.9306 30.5215L17.8107 30.4516L17.6708 30.3616C16.2895 29.4481 15.3266 28.0237 14.9933 26.4009C14.6599 24.778 14.9833 23.0891 15.8925 21.7045L15.8825 21.7445Z" fill="black"/>
<path d="M41.2579 27.0127C41.0449 27.013 40.8345 27.0596 40.6413 27.1493C40.4481 27.2391 40.2767 27.3699 40.139 27.5325C39.8293 27.8824 32.5264 36.3895 32.5264 43.1472C32.5264 49.1452 35.6034 52.7639 40.7884 52.9839H41.2679C45.6137 53.0039 49.9995 50.0049 49.9995 43.1472C49.9995 36.0396 42.6766 27.8524 42.3669 27.5025C42.2252 27.3495 42.0537 27.2272 41.863 27.1429C41.6723 27.0587 41.4664 27.0144 41.2579 27.0127ZM39.2599 47.5057C39.2599 46.2262 40.2589 44.3868 41.2579 42.9273C42.197 44.2468 43.256 46.0662 43.256 47.5057C43.256 49.765 41.8573 50.0049 41.2579 50.0049C41.0881 50.0049 40.9282 50.0049 40.7584 50.0049C40.0091 49.8449 39.2599 49.3351 39.2599 47.5057ZM46.2531 46.9959C45.9534 43.5071 42.7665 39.9083 42.3868 39.4985C42.2399 39.3441 42.0632 39.2212 41.8674 39.137C41.6717 39.0528 41.461 39.0091 41.2479 39.0086C41.0374 39.0091 40.8294 39.0549 40.638 39.1428C40.4467 39.2308 40.2765 39.3589 40.139 39.5184C39.7494 39.9583 36.4726 43.807 36.2827 47.1958C35.7345 45.9361 35.4718 44.5706 35.5135 43.1972C35.5135 38.9786 39.3398 33.4605 41.2779 30.9314C43.276 33.3905 47.0124 38.7487 47.0124 43.1972C47.0474 44.5097 46.7808 45.8128 46.2331 47.0059L46.2531 46.9959Z" fill="black"/>
</svg>

<svg width="64" height="64" viewBox="0 0 64 64" fill="none" xmlns="http://www.w3.org/2000/svg"><path d="M11.527 44.007a1.498 1.498 0 0 0-1.499 1.5v5.297a28.919 28.919 0 0 1-4.176-31.406 28.904 28.904 0 0 1 11.11-12.234A28.878 28.878 0 0 1 32.956 3.02c3.077.172 6.11.816 8.991 1.91a1.498 1.498 0 0 0 1.826-2.007 1.5 1.5 0 0 0-.767-.793 33.63 33.63 0 0 0-9.93-2.11 31.883 31.883 0 0 0-17.725 4.61A31.912 31.912 0 0 0 3.08 18.235a31.937 31.937 0 0 0 4.87 34.769H2.524a1.498 1.498 0 0 0-1.06 2.56c.282.28.663.439 1.06.439h8.992a1.498 1.498 0 0 0 1.518-1.5v-8.997a1.501 1.501 0 0 0-1.508-1.5Zm44.557-32.989h5.424a1.498 1.498 0 0 0 1.06-2.56 1.498 1.498 0 0 0-1.06-.44h-8.99a1.498 1.498 0 0 0-1.52 1.52v8.997a1.5 1.5 0 1 0 2.998 0v-5.298a28.931 28.931 0 0 1-1.349 39.167A28.602 28.602 0 0 1 32.257 61h-.24a29.835 29.835 0 0 1-9.99-1.9 1.498 1.498 0 0 0-1.577 2.54c.172.126.369.215.578.26A32.453 32.453 0 0 0 32.017 64h.25a31.532 31.532 0 0 0 22.518-9.487 31.941 31.941 0 0 0 1.299-43.495Z" fill="currentColor"/><path d="M21.347 34.6a9.256 9.256 0 0 0 7.743-4.168l3.996-5.998a1.49 1.49 0 0 0 .22-1.12 1.5 1.5 0 0 0-.65-1l-1.518-1 2.657-3.998a1.501 1.501 0 0 0-1.545-2.3 1.5 1.5 0 0 0-.952.64l-2.668 4-5.155-3.4 2.338-3.708a1.5 1.5 0 0 0-1.64-2.337 1.5 1.5 0 0 0-.918.807l-2.317 3.659-1.519-1a1.438 1.438 0 0 0-1.119-.21 1.479 1.479 0 0 0-.949.64l-3.996 5.998a9.2 9.2 0 0 0-1.319 6.908 9.088 9.088 0 0 0 2.898 4.998l-2.418 3.599a1.5 1.5 0 0 0 1.259 2.399 1.489 1.489 0 0 0 1.258-.67l2.418-3.609a9.27 9.27 0 0 0 3.896.87Zm-5.465-12.856 3.147-4.788 10.7 6.998-3.147 4.778a6.245 6.245 0 0 1-8.651 1.79l-.12-.07-.14-.09a6.258 6.258 0 0 1-1.778-8.657l-.01.04Zm25.376 5.269a1.47 1.47 0 0 0-1.119.52c-.31.35-7.613 8.856-7.613 15.614 0 5.998 3.077 9.617 8.262 9.837h.48c4.346.02 8.731-2.98 8.731-9.837 0-7.107-7.322-15.295-7.632-15.644a1.53 1.53 0 0 0-1.11-.49ZM39.26 47.506c0-1.28.999-3.12 1.998-4.579.939 1.32 1.998 3.14 1.998 4.579 0 2.259-1.399 2.499-1.998 2.499h-.5c-.749-.16-1.498-.67-1.498-2.5Zm6.993-.51c-.3-3.489-3.486-7.088-3.866-7.498a1.576 1.576 0 0 0-1.14-.49 1.47 1.47 0 0 0-1.108.51c-.39.44-3.666 4.289-3.856 7.678a9.312 9.312 0 0 1-.77-3.999c0-4.218 3.827-9.736 5.765-12.266 1.998 2.46 5.734 7.818 5.734 12.266a8.581 8.581 0 0 1-.779 3.809l.02-.01Z" fill="currentColor"/></svg>
